src/pos-icons/account-cancel.svg

<svg height="24" viewBox="0 0 24 24" width="24" xmlns="http://www.w3.org/2000/svg"><path d="m10 4a4 4 0 0 0 -4 4 4 4 0 0 0 4 4 4 4 0 0 0 4-4 4 4 0 0 0 -4-4m7.5 9c-2.5 0-4.5 2-4.5 4.5s2 4.5 4.5 4.5 4.5-2 4.5-4.5-2-4.5-4.5-4.5m-7.5 1c-4.42 0-8 1.79-8 4v2h9.5a6.5 6.5 0 0 1 -.5-2.5 6.5 6.5 0 0 1 .95-3.36c-.63-.08-1.27-.14-1.95-.14m7.5.5c1.66 0 3 1.34 3 3 0 .56-.15 1.08-.42 1.5l-4.08-4.08c.42-.27.94-.42 1.5-.42m-2.58 1.5 4.08 4.08c-.42.27-.94.42-1.5.42-1.66 0-3-1.34-3-3 0-.56.15-1.08.42-1.5z"/></svg>

<?xml version="1.0" encoding="UTF-8"?><!DOCTYPE svg PUBLIC "-//W3C//DTD SVG 1.1//EN" "http://www.w3.org/Graphics/SVG/1.1/DTD/svg11.dtd"><svg xmlns="http://www.w3.org/2000/svg" xmlns:xlink="http://www.w3.org/1999/xlink" version="1.1" id="mdi-account-cancel" width="24" height="24" viewBox="0 0 24 24"><path d="M10 4A4 4 0 0 0 6 8A4 4 0 0 0 10 12A4 4 0 0 0 14 8A4 4 0 0 0 10 4M17.5 13C15 13 13 15 13 17.5C13 20 15 22 17.5 22C20 22 22 20 22 17.5C22 15 20 13 17.5 13M10 14C5.58 14 2 15.79 2 18V20H11.5A6.5 6.5 0 0 1 11 17.5A6.5 6.5 0 0 1 11.95 14.14C11.32 14.06 10.68 14 10 14M17.5 14.5C19.16 14.5 20.5 15.84 20.5 17.5C20.5 18.06 20.35 18.58 20.08 19L16 14.92C16.42 14.65 16.94 14.5 17.5 14.5M14.92 16L19 20.08C18.58 20.35 18.06 20.5 17.5 20.5C15.84 20.5 14.5 19.16 14.5 17.5C14.5 16.94 14.65 16.42 14.92 16Z" /></svg>
